X:1
T:6 Gesänge, Op.14
T:Lenz
T:Nikolaus Lenau (trans. E. S. Willcox)
T:Robert Franz
T:6 Gesänge, Op.14
T:2. Lenz Spring
T:OpenScore (CC0)
C:Robert Franz
Z:Nikolaus Lenau
Z:OpenScore (CC0)
%%score 1 { ( 2 4 ) | 3 }
L:1/8
Q:1/4=70
M:6/16
K:Bb
V:1 treble nm="Singstimme\nVoice"
V:2 treble nm="Pianoforte"
V:4 treble 
V:3 bass 
V:1
!p!"^Andantino""^Gut zu deklamieren" D/ | D D/ E E/ |"^cresc." ^F F/ G/ G/ G/ | %3
w: Die|Bäu- me blüh'n, die|Vög- lein sin- gen, die|
w: How|fair the scene! The|sweet birds sing- ing, The|
 (A/G/) A/!<(! B/ A/ G/!<)! |!>(! e d/!>)! c z/ | d/ d/ c/ (B/A/) G/ | c/ c/ B/ A/ G/ A/ | %7
w: Wie- * sen brin- gen ihr|er- stes Grün.|Schier thut's mir leid * zu|tre- ten die Er- den und|
w: gras- * ses spring \-ing, so|fresh and green;|Al- most I grieve * to|walk o'er the mea- dow, For|
 B/ A/ G/ =F/ C/ E/ |!<(! (DG/!<)!^F) G/ |!>(! A3/2- A!>)! z/ |!p! D/ D/ D/ E E/ | %11
w: ihr zu ge- fähr- den ihr|neu- * * es|Kleid. *|Sie hat's nicht Acht, ob|
w: fear my dark sha- dow some|gloom _ _ may|leave. *|Lit- tle they care, the|
"^cresc." ^F F/ G/ G/ G/ | (A/G/)!mp! A/!<(! B/ A/ G/!<)! | %13
w: Knos- pen- sprin- gen und|Früh- * lings- sin- gen mich|
w: sweet birds sing- ing, The|gras- * ses spring- ing what|
!mf![Q:1/4=60]"^ritenuto" (dc/ B/[Q:1/4=55]!>(!A/G/ | A3/2)!>)!!pp![Q:1/4=50] B3/2 | G3/2- G |] %16
w: trau- * * * *|* rig|macht. *|
w: grief _ _ _ _|_ I|bear! *|
V:2
 z/ |!p! z/ (B,/-[B,D]/ [CE]) z/ |"_cresc." z/ (C/-[CE^F]/ [B,DG]) z/ | z/ (D/-[D-^FA]/ [DGB]) z/ | %4
!<(! z/ (E/-!<)!!>(![EGce]/ [=FAc])!>)! z/ | z/ (D/-[DFAd]/) z/ (B,/-[B,EG]/) | %6
 z/ (C/-[CEGc]/) z/ (A,/-[A,D^F]/) | z/ (B,/-[B,DG]/) z/ (=F,/-[F,CE=F]/) | %8
 z/ (D/-[DG]/!<(! [A,D^F][G,DG]/!<)! | [^F,DA]3/2- [F,DA]) z/ |!p! z/ (B,/-[B,D]/ [CE]) z/ | %11
"_cresc." z/ (.C/-[CE^F]/ [B,DG]) z/ | z/!mp! (D/-[D-^FA]/ [DGB]) z/ | %13
!<(! z/ (C/-"^ritenuto"[CEG-]/!<)! G3/2 | [A,CG]3/2!pp![CD^F]3/2 | [B,DG]3/2- [B,DG]) |] %16
V:3
 z/ | G,3/2- G, z/ | G,3/2- G, z/ | (D,3/2G,) z/ | (C,3/2=F,) z/ | (B,,3/2E,) z/ | (A,,3/2D,) z/ | %7
 (G,,3/2A,,3/2) | (B,,3/2D,3/2) |!>(!!ped! D,,3/2- D,,!>)! z/!ped-up! | G,3/2- G, z/ | %11
 G,3/2-G, z/ | (D,3/2G,) z/ | (A,,>B,,C,/D,/ | E,3/2D,3/2 | G,,3/2- G,,) |] %16
V:4
 x/ | x3 | x3 | x3 | x3 | x3 | x3 | x3 | x3 | x3 | x3 | x3 | x3 | x3/2 D/!>(![CE]/[B,D]/ | %14
 x3/2!>)! x3/2 | x5/2 |] %16

